public/logo.svg

<svg width="16" height="16" viewBox="0 0 16 16" xmlns="http://www.w3.org/2000/svg" fill="currentColor"><path fill-rule="evenodd" clip-rule="evenodd" d="M12.9944 7.87543C12.6765 7.95676 12.3433 8 12 8C11.9965 8 11.993 8 11.9894 7.99999V8.21674C11.9894 9.12596 12.133 10.0352 12.4321 10.9085L12.803 12.0211H3.17241V12.0091L3.54328 10.8965C3.8304 10.0232 3.98593 9.114 3.98593 8.20478V6.00351C3.98593 5.44123 4.10556 4.89092 4.33287 4.38845C4.56017 3.87403 4.88318 3.41942 5.3019 3.04855C5.72062 2.66572 6.21112 2.3786 6.73751 2.21111C7.27587 2.03166 7.83815 1.97184 8.38846 2.03166C8.42817 2.03686 8.46777 2.04264 8.50725 2.04899C8.69007 1.7224 8.91737 1.42408 9.18095 1.16222C8.95341 1.10142 8.7207 1.05602 8.48417 1.02673C7.79029 0.954953 7.08445 1.02673 6.4145 1.25404C5.74455 1.46938 5.13441 1.82828 4.61999 2.30682C4.10556 2.77339 3.68684 3.34764 3.41168 3.9817C3.13652 4.61576 2.981 5.29767 2.981 6.00351V8.20478C2.981 9.00633 2.8494 9.80788 2.59817 10.5735L2 12.3441L2.47854 13.0021H5.98382C5.98382 13.5285 6.19916 14.0429 6.57002 14.4138C6.94089 14.7847 7.45532 15 7.98171 15C8.5081 15 9.02252 14.7847 9.39339 14.4138C9.76426 14.0429 9.9796 13.5285 9.9796 13.0021H13.4849L13.9634 12.3441L13.3772 10.5735C13.126 9.80788 12.9944 9.00633 12.9944 8.19282V7.87543ZM7.98171 14.019C8.2449 14.019 8.49613 13.9113 8.68755 13.7199C8.87896 13.5285 8.98663 13.2773 8.97467 13.0141H6.97678C6.97678 13.2773 7.08445 13.5285 7.27587 13.7199C7.46728 13.9113 7.71851 14.019 7.98171 14.019Z"/><path d="M12 7C13.6569 7 15 5.65685 15 4C15 2.34315 13.6569 1 12 1C10.3431 1 9 2.34315 9 4C9 5.65685 10.3431 7 12 7Z"/></svg>

<svg width="512" height="512" viewBox="0 0 16 16" xmlns="http://www.w3.org/2000/svg">
  <g transform="scale(32) translate(0, 0)" fill="#10b981">
    <!-- Bell with notification dot icon from VS Code Codicons -->
    <path d="M13.377 10.573a7.63 7.63 0 01-.383-2.38V6.195a5.115 5.115 0 00-1.268-3.446 5.138 5.138 0 00-3.242-1.722c-.694-.072-1.4 0-2.07.227-.67.215-1.28.574-1.794 1.053a4.923 4.923 0 00-1.208 1.675 5.067 5.067 0 00-.431 2.022v2.2a7.61 7.61 0 01-.383 2.37L2 12.343l.479.658h3.505c0 .526.215 1.04.586 1.412.37.37.885.586 1.412.586.526 0 1.04-.215 1.411-.586s.587-.886.587-1.412h3.505l.478-.658-.586-1.77zm-4.69 1.77a.997.997 0 01-.705.299.997.997 0 01-.706-.3.997.997 0 01-.3-.705h1.999a.939.939 0 01-.287.706zm-5.515-1.71l.371-1.114a8.633 8.633 0 00.443-2.691V6.004c0-.563.12-1.113.347-1.616.227-.514.55-.969.969-1.34.419-.382.91-.67 1.436-.837.538-.18 1.1-.24 1.65-.18a4.147 4.147 0 012.597 1.4 4.133 4.133 0 011.004 2.776v2.01c0 .909.144 1.818.443 2.691l.371 1.113h-9.63v-.012z"/>
    <!-- Notification dot -->
    <circle cx="11" cy="3" r="2.5" fill="#ef4444"/>
  </g>
</svg>
